img/menu-logo-white.svg

<svg viewBox="0 0 18 23" xmlns="http://www.w3.org/2000/svg"><defs><filter x="-9" y="-11.5" width="36" height="46" filterUnits="objectBoundingBox" id="0"><feOffset dx="0" dy="2" in="SourceAlpha" result="shadowOffsetOuter1"/><feGaussianBlur stdDeviation=".5" in="shadowOffsetOuter1" result="shadowBlurOuter1"/><feColorMatrix values="0 0 0 0 0   0 0 0 0 0   0 0 0 0 0  0 0 0 0.28 0" in="shadowBlurOuter1" type="matrix" result="shadowMatrixOuter1"/><feMerge><feMergeNode in="shadowMatrixOuter1"/><feMergeNode in="SourceGraphic"/></feMerge></filter><filter x="-9" y="-11.5" width="36" height="46" filterUnits="objectBoundingBox" id="1"><feOffset dx="0" dy="2" in="SourceAlpha" result="shadowOffsetOuter1"/><feGaussianBlur stdDeviation=".5" in="shadowOffsetOuter1" result="shadowBlurOuter1"/><feColorMatrix values="0 0 0 0 0   0 0 0 0 0   0 0 0 0 0  0 0 0 0.28 0" in="shadowBlurOuter1" type="matrix" result="shadowMatrixOuter1"/><feMerge><feMergeNode in="shadowMatrixOuter1"/><feMergeNode in="SourceGraphic"/></feMerge></filter><filter x="-9" y="-11.5" width="36" height="46" filterUnits="objectBoundingBox" id="2"><feOffset dx="0" dy="2" in="SourceAlpha" result="shadowOffsetOuter1"/><feGaussianBlur stdDeviation=".5" in="shadowOffsetOuter1" result="shadowBlurOuter1"/><feColorMatrix values="0 0 0 0 0   0 0 0 0 0   0 0 0 0 0  0 0 0 0.28 0" in="shadowBlurOuter1" type="matrix" result="shadowMatrixOuter1"/><feMerge><feMergeNode in="shadowMatrixOuter1"/><feMergeNode in="SourceGraphic"/></feMerge></filter></defs><g fill="#fff" fill-rule="evenodd" transform="translate(1)"><path d="m15.784.281c-.344.444-.844 1.069-1.469 1.802-1.256 1.454-3.034 3.332-5.072 4.854-1.016.758-2.1 1.428-3.188 1.875-1.084.452-2.179.665-3.115.61-.471-.024-.899-.11-1.267-.227-.366-.118-.68-.254-.925-.394-.13-.062-.23-.133-.325-.192-.096-.056-.172-.11-.233-.157-.125-.087-.19-.134-.19-.134 0 0 .057.056.174.159l.211.185c.094.065.187.15.308.234.231.172.536.352.903.519.367.171.804.316 1.302.403.988.18 2.19.096 3.403-.24 1.217-.338 2.444-.9 3.606-1.569 2.325-1.337 4.402-3.059 5.879-4.416l.215-.195v-3.398c-.065.08-.131.177-.217.281" filter="url(#0)"/><path d="m14.684 7.127c-1.252 1.46-3.036 3.336-5.073 4.863-1.018.761-2.101 1.422-3.188 1.869-1.086.452-2.179.67-3.116.61-.47-.024-.899-.103-1.266-.221-.368-.123-.682-.259-.932-.396-.125-.064-.226-.135-.319-.194-.097-.056-.172-.112-.233-.153-.127-.091-.192-.138-.192-.138 0 0 .059.053.177.156l.21.186c.092.07.188.157.305.234.235.174.539.352.906.519.367.173.805.311 1.303.404.986.182 2.189.094 3.402-.242 1.216-.338 2.443-.899 3.603-1.567 2.256-1.286 4.256-2.94 5.73-4.274v-3.254c-.333.418-.778.971-1.317 1.598" filter="url(#1)"/><path d="m9.757 17.03c-1.021.758-2.101 1.423-3.193 1.874-1.08.45-2.171.663-3.11.611-.468-.032-.897-.111-1.264-.228-.368-.124-.683-.258-.931-.397-.126-.064-.23-.135-.323-.19-.099-.055-.17-.114-.232-.155-.124-.092-.194-.14-.194-.14 0 0 .062.056.178.162l.212.183c.086.069.187.154.306.231.234.173.538.352.903.523.37.173.808.313 1.299.4.992.18 2.194.095 3.407-.242 1.21-.335 2.442-.897 3.602-1.561 2.177-1.25 4.118-2.838 5.583-4.146v-3.207c-.312.397-.705.883-1.161 1.422-1.266 1.454-3.043 3.336-5.082 4.86" filter="url(#2)"/></g></svg>

<?xml version="1.0" encoding="UTF-8" standalone="no"?>
<svg width="18px" height="23px" viewBox="0 0 18 23" version="1.1" xmlns="http://www.w3.org/2000/svg" xmlns:xlink="http://www.w3.org/1999/xlink" xmlns:sketch="http://www.bohemiancoding.com/sketch/ns">
    <!-- Generator: Sketch 3.0.4 (8053) - http://www.bohemiancoding.com/sketch -->
    <title>menu-logo-white</title>
    <desc>Created with Sketch.</desc>
    <defs>
        <filter x="-50%" y="-50%" width="200%" height="200%" filterUnits="objectBoundingBox" id="filter-1">
            <feOffset dx="0" dy="2" in="SourceAlpha" result="shadowOffsetOuter1"></feOffset>
            <feGaussianBlur stdDeviation="0.5" in="shadowOffsetOuter1" result="shadowBlurOuter1"></feGaussianBlur>
            <feColorMatrix values="0 0 0 0 0   0 0 0 0 0   0 0 0 0 0  0 0 0 0.28 0" in="shadowBlurOuter1" type="matrix" result="shadowMatrixOuter1"></feColorMatrix>
            <feMerge>
                <feMergeNode in="shadowMatrixOuter1"></feMergeNode>
                <feMergeNode in="SourceGraphic"></feMergeNode>
            </feMerge>
        </filter>
        <filter x="-50%" y="-50%" width="200%" height="200%" filterUnits="objectBoundingBox" id="filter-2">
            <feOffset dx="0" dy="2" in="SourceAlpha" result="shadowOffsetOuter1"></feOffset>
            <feGaussianBlur stdDeviation="0.5" in="shadowOffsetOuter1" result="shadowBlurOuter1"></feGaussianBlur>
            <feColorMatrix values="0 0 0 0 0   0 0 0 0 0   0 0 0 0 0  0 0 0 0.28 0" in="shadowBlurOuter1" type="matrix" result="shadowMatrixOuter1"></feColorMatrix>
            <feMerge>
                <feMergeNode in="shadowMatrixOuter1"></feMergeNode>
                <feMergeNode in="SourceGraphic"></feMergeNode>
            </feMerge>
        </filter>
        <filter x="-50%" y="-50%" width="200%" height="200%" filterUnits="objectBoundingBox" id="filter-3">
            <feOffset dx="0" dy="2" in="SourceAlpha" result="shadowOffsetOuter1"></feOffset>
            <feGaussianBlur stdDeviation="0.5" in="shadowOffsetOuter1" result="shadowBlurOuter1"></feGaussianBlur>
            <feColorMatrix values="0 0 0 0 0   0 0 0 0 0   0 0 0 0 0  0 0 0 0.28 0" in="shadowBlurOuter1" type="matrix" result="shadowMatrixOuter1"></feColorMatrix>
            <feMerge>
                <feMergeNode in="shadowMatrixOuter1"></feMergeNode>
                <feMergeNode in="SourceGraphic"></feMergeNode>
            </feMerge>
        </filter>
    </defs>
    <g id="Page-1" stroke="none" stroke-width="1" fill="none" fill-rule="evenodd" sketch:type="MSPage">
        <g id="menu-logo-white" sketch:type="MSArtboardGroup" fill="#FFFFFF">
            <g id="Fill-2-+-Fill-3-+-Fill-4" sketch:type="MSLayerGroup" transform="translate(1.000000, 0.000000)">
                <path d="M15.784,0.281 C15.44,0.725 14.94,1.35 14.315,2.083 C13.059,3.537 11.281,5.415 9.243,6.937 C8.227,7.695 7.143,8.365 6.055,8.812 C4.971,9.264 3.876,9.477 2.94,9.422 C2.469,9.398 2.041,9.312 1.673,9.195 C1.307,9.077 0.993,8.941 0.748,8.801 C0.618,8.739 0.518,8.668 0.423,8.609 C0.327,8.553 0.251,8.499 0.19,8.452 C0.065,8.365 0,8.318 0,8.318 C0,8.318 0.057,8.374 0.174,8.477 L0.385,8.662 C0.479,8.727 0.572,8.812 0.693,8.896 C0.924,9.068 1.229,9.248 1.596,9.415 C1.963,9.586 2.4,9.731 2.898,9.818 C3.886,9.998 5.088,9.914 6.301,9.578 C7.518,9.24 8.745,8.678 9.907,8.009 C12.232,6.672 14.309,4.95 15.786,3.593 L16.001,3.398 L16.001,0 C15.936,0.08 15.87,0.177 15.784,0.281" id="Fill-2" filter="url(#filter-1)" sketch:type="MSShapeGroup"></path>
                <path d="M14.684,7.127 C13.432,8.587 11.648,10.463 9.611,11.99 C8.593,12.751 7.51,13.412 6.423,13.859 C5.337,14.311 4.244,14.529 3.307,14.469 C2.837,14.445 2.408,14.366 2.041,14.248 C1.673,14.125 1.359,13.989 1.109,13.852 C0.984,13.788 0.883,13.717 0.79,13.658 C0.693,13.602 0.618,13.546 0.557,13.505 C0.43,13.414 0.365,13.367 0.365,13.367 C0.365,13.367 0.424,13.42 0.542,13.523 L0.752,13.709 C0.844,13.779 0.94,13.866 1.057,13.943 C1.292,14.117 1.596,14.295 1.963,14.462 C2.33,14.635 2.768,14.773 3.266,14.866 C4.252,15.048 5.455,14.96 6.668,14.624 C7.884,14.286 9.111,13.725 10.271,13.057 C12.527,11.771 14.527,10.117 16.001,8.783 L16.001,5.529 C15.668,5.947 15.223,6.5 14.684,7.127" id="Fill-3" filter="url(#filter-2)" sketch:type="MSShapeGroup"></path>
                <path d="M9.757,17.033 C8.736,17.791 7.656,18.456 6.564,18.907 C5.484,19.357 4.393,19.57 3.454,19.518 C2.986,19.486 2.557,19.407 2.19,19.29 C1.822,19.166 1.507,19.032 1.259,18.893 C1.133,18.829 1.029,18.758 0.936,18.703 C0.837,18.648 0.766,18.589 0.704,18.548 C0.58,18.456 0.51,18.408 0.51,18.408 C0.51,18.408 0.572,18.464 0.688,18.57 L0.9,18.753 C0.986,18.822 1.087,18.907 1.206,18.984 C1.44,19.157 1.744,19.336 2.109,19.507 C2.479,19.68 2.917,19.82 3.408,19.907 C4.4,20.087 5.602,20.002 6.815,19.665 C8.025,19.33 9.257,18.768 10.417,18.104 C12.594,16.854 14.535,15.266 16,13.958 L16,10.751 C15.688,11.148 15.295,11.634 14.839,12.173 C13.573,13.627 11.796,15.509 9.757,17.033 Z" id="Fill-4" filter="url(#filter-3)" sketch:type="MSShapeGroup"></path>
            </g>
        </g>
    </g>
</svg>
